domfk/img/icons/chronometer.svg

<svg width="22" height="22" viewBox="0 0 22 22" fill="none" xmlns="http://www.w3.org/2000/svg">
<g clip-path="url(#clip0_503:4860)">
<path d="M6.443 4.36597L5.1584 3.07871C4.86041 2.78012 4.46403 2.61572 4.0422 2.61572C3.62038 2.61572 3.22399 2.78016 2.92605 3.07871L1.99487 4.0119C1.38192 4.62606 1.38192 5.62542 1.99487 6.23962L3.28217 7.52958C3.40807 7.65574 3.5732 7.71881 3.73841 7.71881C3.90311 7.71881 4.0679 7.65604 4.19371 7.53052C4.44568 7.27907 6.19047 5.52857 6.4421 5.27746C6.69402 5.02605 6.69445 4.61798 6.443 4.36597Z" fill="#105C6E"/>
<path d="M11 0.128906C10.644 0.128906 10.3555 0.417484 10.3555 0.773438V2.83594C10.3555 3.19189 10.644 3.48047 11 3.48047C11.356 3.48047 11.6445 3.19189 11.6445 2.83594V0.773438C11.6445 0.417484 11.356 0.128906 11 0.128906Z" fill="#26879C"/>
<path d="M12.5898 0H9.41016C9.0542 0 8.76562 0.288578 8.76562 0.644531C8.76562 1.00048 9.0542 1.28906 9.41016 1.28906H12.5898C12.9458 1.28906 13.2344 1.00048 13.2344 0.644531C13.2344 0.288578 12.9458 0 12.5898 0Z" fill="#DE513C"/>
<path d="M11 0H9.41016C9.0542 0 8.76562 0.288578 8.76562 0.644531C8.76562 1.00048 9.0542 1.28906 9.41016 1.28906H11V0Z" fill="#FC6249"/>
<path d="M17.9886 5.09674C16.122 3.22622 13.64 2.19604 11 2.19604C8.35991 2.19604 5.87795 3.22622 4.0113 5.09674C2.145 6.96691 1.11719 9.45338 1.11719 12.098C1.11719 14.7427 2.145 17.2291 4.0113 19.0993C5.87795 20.9698 8.35991 22 11 22C13.64 22 16.122 20.9698 17.9886 19.0993C19.8549 17.2291 20.8827 14.7427 20.8827 12.098C20.8827 9.45338 19.8549 6.96691 17.9886 5.09674Z" fill="#FF0000"/>
<path d="M11 2.19604C8.35991 2.19604 5.87795 3.22622 4.0113 5.09674C2.145 6.96691 1.11719 9.45338 1.11719 12.098C1.11719 14.7427 2.145 17.2291 4.0113 19.0993C5.87795 20.9698 8.35991 22 11 22V2.19604Z" fill="#FC6249"/>
<path d="M11.0001 4.66357C6.90869 4.66357 3.58008 7.99855 3.58008 12.0978C3.58008 16.1971 6.90869 19.5321 11.0001 19.5321C15.0915 19.5321 18.4201 16.1971 18.4201 12.0978C18.4201 7.99855 15.0915 4.66357 11.0001 4.66357Z" fill="white"/>
<path d="M11.0001 4.66357C6.90869 4.66357 3.58008 7.99855 3.58008 12.0978C3.58008 16.1971 6.90869 19.5321 11.0001 19.5321V4.66357Z" fill="#F4F2E6"/>
<path d="M11 6.27377C11.356 6.27377 11.6445 5.98519 11.6445 5.62924V4.69218C11.4321 4.67379 11.2172 4.66382 11 4.66382C10.7828 4.66382 10.5679 4.67379 10.3555 4.69218V5.62924C10.3555 5.98519 10.644 6.27377 11 6.27377Z" fill="#105C6E"/>
<path d="M11 17.9224C10.644 17.9224 10.3555 18.2109 10.3555 18.5669V19.504C10.5679 19.5223 10.7828 19.5323 11 19.5323C11.2172 19.5323 11.4321 19.5223 11.6445 19.504V18.5669C11.6445 18.2109 11.356 17.9224 11 17.9224Z" fill="#105C6E"/>
<path d="M18.3918 11.4536H17.4688C17.1128 11.4536 16.8242 11.7422 16.8242 12.0981C16.8242 12.4541 17.1128 12.7427 17.4688 12.7427H18.3918C18.4101 12.5302 18.42 12.3153 18.42 12.0981C18.42 11.881 18.4101 11.6661 18.3918 11.4536Z" fill="#105C6E"/>
<path d="M5.17581 12.0981C5.17581 11.7422 4.88723 11.4536 4.53128 11.4536H3.60827C3.58996 11.6661 3.58008 11.881 3.58008 12.0981C3.58008 12.3153 3.58996 12.5302 3.60827 12.7427H4.53128C4.88723 12.7427 5.17581 12.4541 5.17581 12.0981Z" fill="#105C6E"/>
<path d="M12.59 11.7262H11.6807V9.11939C11.6807 8.76343 11.3921 8.47485 11.0361 8.47485C10.6802 8.47485 10.3916 8.76343 10.3916 9.11939V12.3707C10.3916 12.7267 10.6802 13.0152 11.0361 13.0152H12.59C12.9459 13.0152 13.2345 12.7267 13.2345 12.3707C13.2345 12.0148 12.9459 11.7262 12.59 11.7262Z" fill="#105C6E"/>
</g>
<defs>
<clipPath id="clip0_503:4860">
<rect width="22" height="22" fill="white"/>
</clipPath>
</defs>
</svg>

<svg width="22" height="22" fill="none" xmlns="http://www.w3.org/2000/svg"><g clip-path="url(#clip0_503:4860)"><path d="M6.443 4.366L5.158 3.079a1.566 1.566 0 00-1.116-.463c-.422 0-.818.164-1.116.463l-.931.933a1.58 1.58 0 000 2.228l1.287 1.29a.642.642 0 00.912 0c.252-.25 1.996-2.001 2.248-2.253a.645.645 0 00.001-.911z" fill="#105C6E"/><path d="M11 .129a.644.644 0 00-.645.644v2.063a.644.644 0 101.29 0V.773A.644.644 0 0011 .13z" fill="#26879C"/><path d="M12.59 0H9.41a.645.645 0 000 1.29h3.18a.645.645 0 100-1.29z" fill="#DE513C"/><path d="M11 0H9.41a.645.645 0 000 1.29H11V0z" fill="#FC6249"/><path d="M17.989 5.097A9.808 9.808 0 0011 2.196a9.808 9.808 0 00-6.989 2.9 9.847 9.847 0 00-2.894 7.002 9.847 9.847 0 002.894 7.001A9.809 9.809 0 0011 22c2.64 0 5.122-1.03 6.989-2.9a9.847 9.847 0 002.894-7.002 9.847 9.847 0 00-2.894-7.001z" fill="red"/><path d="M11 2.196a9.808 9.808 0 00-6.989 2.9 9.847 9.847 0 00-2.894 7.002 9.847 9.847 0 002.894 7.001A9.809 9.809 0 0011 22V2.196z" fill="#FC6249"/><path d="M11 4.664c-4.091 0-7.42 3.335-7.42 7.434 0 4.1 3.329 7.434 7.42 7.434 4.091 0 7.42-3.335 7.42-7.434 0-4.1-3.329-7.434-7.42-7.434z" fill="#fff"/><path d="M11 4.664c-4.091 0-7.42 3.335-7.42 7.434 0 4.1 3.329 7.434 7.42 7.434V4.664z" fill="#F4F2E6"/><path d="M11 6.274a.644.644 0 00.645-.645v-.937a7.469 7.469 0 00-1.29 0v.937c0 .356.289.645.645.645zm0 11.648a.644.644 0 00-.645.645v.937a7.505 7.505 0 001.29 0v-.937a.644.644 0 00-.645-.645zm7.392-6.468h-.923a.645.645 0 100 1.289h.923a7.51 7.51 0 000-1.29zm-13.216.644a.645.645 0 00-.645-.644h-.923a7.505 7.505 0 000 1.289h.923a.645.645 0 00.645-.645zm7.414-.372h-.91V9.12a.645.645 0 00-1.288 0v3.252c0 .356.288.644.644.644h1.554a.644.644 0 100-1.289z" fill="#105C6E"/></g><defs><clipPath id="clip0_503:4860"><path fill="#fff" d="M0 0h22v22H0z"/></clipPath></defs></svg>
